src/images/logo.svg

<svg width="130" height="38" viewBox="0 0 130 38" fill="none" xmlns="http://www.w3.org/2000/svg">
<g id="Logo">
<g id="MyBiKE">
<path d="M29.4111 3.52908V28.5535H23.0849V13.546L17.2767 28.5535H12.1714L6.32615 13.5103V28.5535H0V3.52908H7.473L14.761 20.8537L21.9751 3.52908H29.4111Z" fill="white"/>
<path d="M54.1804 8.66229L41.2321 38H34.425L39.1604 27.8762L30.7625 8.66229H37.8286L42.6009 21.1032L47.3363 8.66229H54.1804Z" fill="white"/>
<path d="M71.3238 15.7205C72.8283 16.0294 74.0368 16.7542 74.9493 17.8949C75.8619 19.0119 76.3182 20.2952 76.3182 21.7448C76.3182 23.8361 75.5536 25.4997 74.0245 26.7355C72.52 27.9475 70.4113 28.5535 67.6983 28.5535H55.6009V3.52908H67.2914C69.9304 3.52908 71.9897 4.11132 73.4696 5.2758C74.974 6.44028 75.7262 8.02064 75.7262 10.0169C75.7262 11.4903 75.3193 12.7142 74.5054 13.6886C73.7162 14.6629 72.6557 15.3402 71.3238 15.7205ZM61.9271 13.6529H66.0705C67.1064 13.6529 67.8956 13.439 68.4382 13.0113C69.0055 12.5597 69.2891 11.9062 69.2891 11.0507C69.2891 10.1951 69.0055 9.54159 68.4382 9.09006C67.8956 8.63853 67.1064 8.41276 66.0705 8.41276H61.9271V13.6529ZM66.5885 23.6341C67.649 23.6341 68.4629 23.4084 69.0301 22.9568C69.6221 22.4816 69.918 21.8043 69.918 20.925C69.918 20.0457 69.6097 19.3565 68.9931 18.8574C68.4012 18.3583 67.575 18.1088 66.5145 18.1088H61.9271V23.6341H66.5885Z" fill="white"/>
<path d="M82.3018 6.59475C81.192 6.59475 80.2794 6.2858 79.5642 5.66792C78.8736 5.02627 78.5283 4.24203 78.5283 3.3152C78.5283 2.3646 78.8736 1.58036 79.5642 0.962477C80.2794 0.320826 81.192 0 82.3018 0C83.387 0 84.2749 0.320826 84.9655 0.962477C85.6807 1.58036 86.0383 2.3646 86.0383 3.3152C86.0383 4.24203 85.6807 5.02627 84.9655 5.66792C84.2749 6.2858 83.387 6.59475 82.3018 6.59475ZM85.4464 8.66229V28.5535H79.1203V8.66229H85.4464Z" fill="white"/>
<path d="M104.221 28.5535L95.49 17.5028V28.5535H89.1638V3.52908H95.49V14.5084L104.147 3.52908H111.583L101.52 15.7917L111.953 28.5535H104.221Z" fill="white"/>
<path d="M120.418 8.41276V13.4747H128.89V18.1801H120.418V23.6698H130V28.5535H114.092V3.52908H130V8.41276H120.418Z" fill="white"/>
</g>
</g>
</svg>

<svg xmlns="http://www.w3.org/2000/svg" width="130" height="38" fill="none"><g fill="#fff"><path d="M29.411 3.53v25.023h-6.326V13.546l-5.808 15.008H12.17L6.326 13.51v15.043H0V3.53h7.473l7.288 17.325 7.214-17.325h7.436ZM54.18 8.662 41.232 38h-6.807l4.735-10.124-8.397-19.214h7.066L42.6 21.103l4.735-12.44h6.844ZM71.324 15.72c1.504.31 2.713 1.034 3.625 2.175a5.912 5.912 0 0 1 1.37 3.85c0 2.091-.765 3.755-2.294 4.99-1.505 1.213-3.614 1.819-6.327 1.819H55.601V3.529h11.69c2.64 0 4.699.582 6.179 1.747 1.504 1.164 2.256 2.745 2.256 4.74 0 1.474-.407 2.698-1.22 3.673-.79.974-1.85 1.651-3.182 2.031Zm-9.397-2.067h4.143c1.036 0 1.826-.214 2.368-.642.567-.451.851-1.105.851-1.96 0-.856-.284-1.51-.85-1.96-.543-.452-1.333-.678-2.368-.678h-4.144v5.24Zm4.661 9.981c1.061 0 1.875-.226 2.442-.677.592-.475.888-1.153.888-2.032 0-.88-.308-1.569-.925-2.068-.592-.499-1.418-.748-2.478-.748h-4.588v5.525h4.661ZM82.302 6.595c-1.11 0-2.023-.31-2.738-.927-.69-.642-1.036-1.426-1.036-2.353 0-.95.346-1.735 1.036-2.353C80.28.321 81.192 0 82.302 0c1.085 0 1.973.32 2.663.962.716.618 1.073 1.403 1.073 2.353 0 .927-.357 1.711-1.072 2.353-.691.618-1.579.927-2.664.927Zm3.144 2.067v19.892H79.12V8.662h6.326ZM104.221 28.553l-8.731-11.05v11.05h-6.326V3.53h6.326v10.98l8.657-10.98h7.436L101.52 15.792l10.433 12.761h-7.732ZM120.418 8.413v5.062h8.472v4.705h-8.472v5.49H130v4.883h-15.908V3.53H130v4.884h-9.582Z"/></g></svg>
